X: 28934
T: Nalew's
R: reel
M: 4/4
K: Edorian
|:D|JE2EB BAFD|FEFB AFDF|E2EB BAFD|dBAF FEED|
~E3B BAFD|F2EB AFDA|BcdB BAFB|dBAF FEE:|
|:A|B2cd B~e3|fedB e2ed|BABd g2ge|f2fe BAFA|
~B3d fede|fedB e3f|gbag fagf|edBG AGF:|

